X:1
T:Aurelia, 76.76 D
T:Aurelia, 76.76 D
T:Samuel Sebastian Wesley, 1864
T:Public Domain Courtesy of the Cyber Hymnal™
C:Samuel Sebastian Wesley, 1864
Z:Public Domain
Z:Courtesy of the Cyber Hymnal™
%%score ( 1 2 ) ( 3 4 )
L:1/8
Q:1/4=110
M:4/4
K:Eb
V:1 treble 
V:2 treble 
V:3 bass 
V:4 bass 
V:1
 [EG]2 | [EG]2 [EG]2 [EA]2 [EG]2 | [EG]4 [DF]2 E2 | [CE]2 [Ec]2 [EB]2 [DA]2 | [EG]6 [DA]2 | %5
 [EB]2 [Ee]2 [Ee]2 [Fd]2 | [Fd]4 [Ec]2 [GB]2 | [FA]2 [FB]2 [EG]2 E2 | [DF]6 [DF]2 | %9
 [EG]2 [DA]2 [EB]2 [Ec]2 | [Ec]4 [EB]2 [Ge]2 | [Ge]3 [Gd] [Gc]2 G2 | [FA]6 F2 | %13
 [EG]2 [EG]2 [EA]2 [EG]2 | [CG]4 [CF]2 [CE]2 | [CE]2 [CF]2 [B,E]2 [B,D]2 | [B,E]6 |] %17
V:2
 x2 | x8 | x6 E2 | x8 | x8 | x8 | x8 | x6 E2 | x8 | x8 | x8 | x6 G2 | x6 F2 | x8 | x8 | x8 | x6 |] %17
V:3
 [E,B,]2 | [E,B,]2 [E,B,]2 [E,C]2 [E,B,]2 | [B,,B,]4 [G,,B,]2 [G,,B,]2 | %3
 [A,,F,]2 [A,,F,]2 [B,,G,]2 [B,,B,]2 | [E,B,]6 [F,B,]2 | [G,B,]2 [G,B,]2 [G,=B,]2 [G,,B,]2 | %6
 [A,,=B,]4 [A,,C]2 [_B,,_D]2 | [C,E]2 [D,F]2 [E,B,]2 [C,=A,]2 | [B,,B,]6 [B,,B,]2 | %9
 [E,B,]2 [F,B,]2 [G,B,]2 A,2 | A,4 [G,B,]2 [C,C]2 | [G,C]3 [F,=B,] [E,C]2 [=E,C]2 | %12
 [F,C]6 [D,B,]2 | [E,B,]2 [E,B,]2 [E,C]2 [E,B,]2 | [A,,B,]4 [A,,A,]2 [A,,A,]2 | %15
 [F,,A,]2 [F,,A,]2 [B,,F,]2 [B,,A,]2 | [E,G,]6 |] %17
V:4
 x2 | x8 | x8 | x8 | x8 | x8 | x8 | x8 | x8 | x6 A,2 | A,4 x4 | x8 | x8 | x8 | x8 | x8 | x6 |] %17

